src/icons/compass.svg

<svg width="24" height="24" viewBox="0 0 24 24" fill="none" xmlns="http://www.w3.org/2000/svg">
<path fill-rule="evenodd" clip-rule="evenodd" d="M9.40372 11.1926L6 18L12.8074 14.5963C13.5815 14.2092 14.2092 13.5815 14.5963 12.8074L18 6L11.1926 9.40372C10.4185 9.79077 9.79077 10.4185 9.40372 11.1926ZM12 11C12.5523 11 13 11.4477 13 12C13 12.5523 12.5523 13 12 13C11.4477 13 11 12.5523 11 12C11 11.4477 11.4477 11 12 11Z" fill="black"/>
<path fill-rule="evenodd" clip-rule="evenodd" d="M24 12C24 5.37258 18.6274 0 12 0C5.37258 0 0 5.37258 0 12C0 18.6274 5.37258 24 12 24C18.6274 24 24 18.6274 24 12ZM13 2.04938V4H11V2.04938C6.27558 2.51844 2.51844 6.27558 2.04938 11H4V13H2.04938C2.51844 17.7244 6.27558 21.4816 11 21.9506V20H13V21.9506C17.7244 21.4816 21.4816 17.7244 21.9506 13H20V11H21.9506C21.4816 6.27558 17.7244 2.51844 13 2.04938Z" fill="black"/>
</svg>

<svg xmlns="http://www.w3.org/2000/svg" width="24" height="24" fill="none"><path fill="currentColor" fill-rule="evenodd" d="M9.404 11.193 6 18l6.807-3.404a4 4 0 0 0 1.79-1.789L18 6l-6.807 3.404a4 4 0 0 0-1.79 1.789M12 11a1 1 0 1 1 0 2 1 1 0 0 1 0-2" clip-rule="evenodd"/><path fill="currentColor" fill-rule="evenodd" d="M24 12c0-6.627-5.373-12-12-12S0 5.373 0 12s5.373 12 12 12 12-5.373 12-12M13 2.05V4h-2V2.05A10 10 0 0 0 2.05 11H4v2H2.05A10 10 0 0 0 11 21.95V20h2v1.95A10 10 0 0 0 21.95 13H20v-2h1.95A10 10 0 0 0 13 2.05" clip-rule="evenodd"/></svg>
